X:162
M:4/4
L:1/4
K:F
F | F E F A | G G F F | B A F G | A3 A | A B c A | F G A !sintro!A | G F F E | F3 !eintro!|]
